Origami/48x48/apps/rapidsvn.svg

<svg version="1.1" viewBox="0 0 48 48" xmlns="http://www.w3.org/2000/svg">
 <path d="M 24,4 A 20,20 0 0 0 4,24 20,20 0 0 0 24,44 20,20 0 0 0 44,24 20,20 0 0 0 24,4 Z" style="fill:#4f4f4f"/>
 <path d="M 4.0214845,24.417969 A 20,20 0 0 0 4,25 20,20 0 0 0 24,45 20,20 0 0 0 44,25 20,20 0 0 0 43.978515,24.582031 20,20 0 0 1 24,44 20,20 0 0 1 4.0214845,24.417969 Z" style="opacity:.2"/>
 <path d="m27.181818 33.909091c0 1.331346-1.384363 5.090909-3.636363 5.090909-2.811636 0-6.545455-3.082618-6.545455-5.090909 0-2.008292 2.279273-2.909091 5.090909-2.909091 2.811637 0 5.090909 1.48669 5.090909 2.909091zm7.218181-10.909091a2.3999999 2 0 0 1 -2.399999 2 2.3999999 2 0 0 1 -2.4 -2 2.3999999 2 0 0 1 2.4 -2 2.3999999 2 0 0 1 2.399999 2zm3.429436-12.431197s-10.588078 8.839022-21.577871 9.181773c-3.013962 0.0939-5.247021-0.599447-6.728052-1.305155-1.4810305-0.70573-3.3875445-2.438549-3.3875445-2.438549l-0.647863 1.422809s1.090641 0.95148 1.573028 1.298469c0.3900015 2.086883 2.096783 8.27185 8.4637835 8.27185 5.390346 0 7.277653-4.695611 7.856281-6.89807 7.987531-2.276184 15.398692-8.556821 15.398692-8.556821z" style="opacity:.1"/>
 <path d="m27.181818 32.909091c0 1.331346-1.384363 5.090909-3.636363 5.090909-2.811636 0-6.545455-3.082618-6.545455-5.090909 0-2.008292 2.279273-2.909091 5.090909-2.909091 2.811637 0 5.090909 1.486691 5.090909 2.909091zm7.218181-10.909091a2.3999999 2 0 0 1 -2.399999 2 2.3999999 2 0 0 1 -2.4 -2 2.3999999 2 0 0 1 2.4 -2 2.3999999 2 0 0 1 2.399999 2zm2.831727-11.982269s-9.990369 8.390094-20.980163 8.732845c-3.013961 0.0939-5.24702-0.599447-6.728051-1.305155-1.4810305-0.705731-3.01046-2.127952-3.01046-2.127952l-0.6865405 1.369018s0.752234 0.694674 1.234621 1.041663c0.3900015 2.086883 2.096783 8.27185 8.4637835 8.27185 5.390346 0 7.277653-4.695611 7.856281-6.89807 7.987531-2.276184 14.916307-8.10193 14.916307-8.10193z" style="fill:#e6e6e6"/>
 <path d="M 24,4 A 20,20 0 0 0 4,24 20,20 0 0 0 4.0214844,24.417969 20,20 0 0 1 24,5 20,20 0 0 1 43.978516,24.582031 20,20 0 0 0 44,24 20,20 0 0 0 24,4 Z" style="fill:#ffffff;opacity:.1"/>
</svg>

<svg xmlns="http://www.w3.org/2000/svg" version="1.1" viewBox="0 0 48 48">
 <path style="fill:#4f4f4f" d="M 24,4 A 20,20 0 0 0 4,24 20,20 0 0 0 24,44 20,20 0 0 0 44,24 20,20 0 0 0 24,4 Z"/>
 <path style="opacity:0.2" d="M 4.0214845,24.417969 A 20,20 0 0 0 4,25 20,20 0 0 0 24,45 20,20 0 0 0 44,25 20,20 0 0 0 43.978515,24.582031 20,20 0 0 1 24,44 20,20 0 0 1 4.0214845,24.417969 Z"/>
 <path style="opacity:0.1" d="M 27.181818,33.909091 C 27.181818,35.240437 25.797455,39 23.545455,39 20.733819,39 17,35.917382 17,33.909091 17,31.900799 19.279273,31 22.090909,31 c 2.811637,0 5.090909,1.48669 5.090909,2.909091 z M 34.399999,23 A 2.3999999,2 0 0 1 32,25 2.3999999,2 0 0 1 29.6,23 2.3999999,2 0 0 1 32,21 a 2.3999999,2 0 0 1 2.399999,2 z m 3.429436,-12.431197 c 0,0 -10.588078,8.839022 -21.577871,9.181773 -3.013962,0.0939 -5.247021,-0.599447 -6.728052,-1.305155 -1.4810305,-0.70573 -3.3875445,-2.438549 -3.3875445,-2.438549 l -0.647863,1.422809 c 0,0 1.090641,0.95148 1.573028,1.298469 C 7.451134,20.815033 9.1579155,27 15.524916,27 c 5.390346,0 7.277653,-4.695611 7.856281,-6.89807 7.987531,-2.276184 15.398692,-8.556821 15.398692,-8.556821 z"/>
 <path style="fill:#e6e6e6" d="M 27.181818,32.909091 C 27.181818,34.240437 25.797455,38 23.545455,38 20.733819,38 17,34.917382 17,32.909091 17,30.900799 19.279273,30 22.090909,30 c 2.811637,0 5.090909,1.486691 5.090909,2.909091 z M 34.399999,22 A 2.3999999,2 0 0 1 32,24 2.3999999,2 0 0 1 29.6,22 2.3999999,2 0 0 1 32,20 a 2.3999999,2 0 0 1 2.399999,2 z m 2.831727,-11.982269 c 0,0 -9.990369,8.390094 -20.980163,8.732845 -3.013961,0.0939 -5.24702,-0.599447 -6.728051,-1.305155 -1.4810305,-0.705731 -3.01046,-2.127952 -3.01046,-2.127952 l -0.6865405,1.369018 c 0,0 0.752234,0.694674 1.234621,1.041663 C 7.451134,19.815033 9.1579155,26 15.524916,26 20.915262,26 22.802569,21.304389 23.381197,19.10193 31.368728,16.825746 38.297504,11 38.297504,11 Z"/>
 <path style="opacity:0.1;fill:#ffffff" d="M 24,4 A 20,20 0 0 0 4,24 20,20 0 0 0 4.0214844,24.417969 20,20 0 0 1 24,5 20,20 0 0 1 43.978516,24.582031 20,20 0 0 0 44,24 20,20 0 0 0 24,4 Z"/>
</svg>
